X:5
T:Huntly Lodge
C:Robert Petrie
S:Petrie's Third Collection of Strathspey Reels &c.
Z:Steve Wyrick , 7/30/05
N:Petrie's Third Collection, page 4
L:1/8
M:C
R:Reel
K:F
a|fcaf efgb|adTgf ecce|fcaf efgb|afge f/f/f Tf2|cfaf dgbg|
adgf ecde|fdcB Afed|cBAG AFF||B|AFGE TF2 CF|A,FCF EGGB|AFGE FCDB,|
(A,/B,/C)CB AFFB|AFCF A,FCF|AFcF EGGB|cAfA cfAc|dBbg aff|]
